build/img/svg/question-icon.svg

<svg width="48" height="40" viewBox="0 0 48 40" fill="none" xmlns="http://www.w3.org/2000/svg">
<path d="M18 20V22" stroke="#0061D9" stroke-width="2" stroke-miterlimit="10"/>
<path d="M15 12C15 10.221 16.221 9 18 9C19.741 9 21 10.258 21 12C21 13.019 20.258 14.097 19.52 14.688C18.31 15.655 18 16.452 18 18.001" stroke="#0061D9" stroke-width="2" stroke-miterlimit="10"/>
<path d="M17.5 1C8.387 1 1 7.044 1 14.5C1 18.279 2.90202 21.69 5.96002 24.141C6.02902 26.006 5.85803 28.771 5.05603 31.048C4.75703 31.898 5.59598 32.736 6.43298 32.403C9.15498 31.323 11.577 29.283 13.305 27.542C14.647 27.831 16.048 28 17.501 28C26.614 28 34.001 21.956 34.001 14.5C34 7.044 26.613 1 17.5 1Z" stroke="#0061D9" stroke-width="2" stroke-miterlimit="10"/>
<path d="M21.6328 31.0251C24.3128 32.8831 27.7518 34.0001 31.5008 34.0001C32.8288 34.0001 34.1098 33.8451 35.3388 33.5821C37.0028 35.3801 39.1678 37.3111 41.5678 38.3931C42.4058 38.7711 43.2438 37.8181 42.9448 36.8521C42.3168 34.8251 42.0788 32.4651 42.0368 30.5161C45.0828 28.1421 47.0008 24.7631 47.0008 21.0001C47.0008 15.2801 42.5958 10.4231 36.4768 8.68408" stroke="#0061D9" stroke-width="2" stroke-miterlimit="10" stroke-linecap="round"/>
</svg>

<svg width="48" height="40" fill="none" xmlns="http://www.w3.org/2000/svg"><path d="M18 20v2m-3-10c0-1.779 1.221-3 3-3 1.741 0 3 1.258 3 3 0 1.019-.742 2.097-1.48 2.688-1.21.967-1.52 1.764-1.52 3.313" stroke="#0061D9" stroke-width="2" stroke-miterlimit="10"/><path d="M17.5 1C8.387 1 1 7.044 1 14.5c0 3.779 1.902 7.19 4.96 9.641.069 1.865-.102 4.63-.904 6.907-.299.85.54 1.688 1.377 1.355 2.722-1.08 5.144-3.12 6.872-4.861 1.342.289 2.743.458 4.196.458 9.113 0 16.5-6.044 16.5-13.5C34 7.044 26.613 1 17.5 1z" stroke="#0061D9" stroke-width="2" stroke-miterlimit="10"/><path d="M21.633 31.025C24.313 32.883 27.752 34 31.5 34c1.328 0 2.609-.155 3.838-.418 1.664 1.798 3.829 3.73 6.229 4.811.838.378 1.676-.575 1.377-1.54-.628-2.028-.866-4.388-.908-6.337C45.083 28.142 47 24.763 47 21c0-5.72-4.405-10.577-10.524-12.316" stroke="#0061D9" stroke-width="2" stroke-miterlimit="10" stroke-linecap="round"/></svg>
